X: 35107
T: Rolling Waves, The
R: jig
M: 6/8
K: Dmajor
|:F2E EDE|F2D D3|F2E EFA|d2e fdA|
F2E EDE|F2D D3|AFE EFA|B3 d2A:|
|:ABd e2f|d2A B2A|ABd e2f|d2A B2A|
ABd ede|fdB BAF|AFE EFA|B3 d3:|

